svg/image_multiple_outline.svg

<?xml version="1.0" encoding="UTF-8"?><!DOCTYPE svg PUBLIC "-//W3C//DTD SVG 1.1//EN" "http://www.w3.org/Graphics/SVG/1.1/DTD/svg11.dtd"><svg xmlns="http://www.w3.org/2000/svg" xmlns:xlink="http://www.w3.org/1999/xlink" version="1.1" id="mdi-image-multiple-outline" width="24" height="24" viewBox="0 0 24 24"><path d="M21,17H7V3H21M21,1H7A2,2 0 0,0 5,3V17A2,2 0 0,0 7,19H21A2,2 0 0,0 23,17V3A2,2 0 0,0 21,1M3,5H1V21A2,2 0 0,0 3,23H19V21H3M15.96,10.29L13.21,13.83L11.25,11.47L8.5,15H19.5L15.96,10.29Z" /></svg>

<svg xmlns="http://www.w3.org/2000/svg" viewBox="0 0 24 24"><path d="M21 17H7V3h14m0-2H7a2 2 0 0 0-2 2v14a2 2 0 0 0 2 2h14a2 2 0 0 0 2-2V3a2 2 0 0 0-2-2M3 5H1v16a2 2 0 0 0 2 2h16v-2H3m12.96-10.71-2.75 3.54-1.96-2.36L8.5 15h11z"/></svg>
